configuração/local/ags/assets/hicolor/scalable/apps/arrow-prev-small-symbolic.svg

<?xml version="1.0" encoding="UTF-8" standalone="no"?>
<!-- Uploaded to: SVG Repo, www.svgrepo.com, Generator: SVG Repo Mixer Tools -->

<svg
   width="800"
   height="800"
   viewBox="0 0 24 24"
   fill="none"
   version="1.1"
   id="svg1"
   xmlns="http://www.w3.org/2000/svg"
   xmlns:svg="http://www.w3.org/2000/svg">
  <defs
     id="defs1" />
  <path
     d="m 14.2893,5.70708 c -0.3905,-0.39053 -1.0236,-0.39053 -1.4142,0 L 7.98768,10.5993 c -0.78039,0.7812 -0.78008,2.047 6.9e-4,2.8277 l 4.89033,4.8904 c 0.3906,0.3905 1.0237,0.3905 1.4143,0 0.3905,-0.3905 0.3905,-1.0237 0,-1.4142 l -4.1857,-4.1857 c -0.39052,-0.3905 -0.39052,-1.0236 0,-1.4142 l 4.182,-4.18201 c 0.3906,-0.39052 0.3906,-1.02369 0,-1.41421 z"
     fill="#0F0F0F"
     id="path1"
     style="fill:#000000" />
</svg>

<?xml version="1.0" encoding="utf-8"?><!-- Uploaded to: SVG Repo, www.svgrepo.com, Generator: SVG Repo Mixer Tools -->
<svg width="800px" height="800px" viewBox="0 0 24 24" fill="none" xmlns="http://www.w3.org/2000/svg">
<path d="M14.2893 5.70708C13.8988 5.31655 13.2657 5.31655 12.8751 5.70708L7.98768 10.5993C7.20729 11.3805 7.2076 12.6463 7.98837 13.427L12.8787 18.3174C13.2693 18.7079 13.9024 18.7079 14.293 18.3174C14.6835 17.9269 14.6835 17.2937 14.293 16.9032L10.1073 12.7175C9.71678 12.327 9.71678 11.6939 10.1073 11.3033L14.2893 7.12129C14.6799 6.73077 14.6799 6.0976 14.2893 5.70708Z" fill="#0F0F0F"/>
</svg>
